X:1
T:Chicken’s Gone to Scotland [1], The
M:C
L:1/8
R:Reek
S:Rev. Luke Donnellan – “Oriel Songs and Dances",
S:Journal of the County Louth Archaeological Society (vol. II, No. 2, 1909; No. 79)
Z:AK/Fiddler’s Companion
K:Amin
A/A/A a2 bagf|B/B/B g2 gdBG|A/A/A a2 bagf|edef gdBG:||
|:A/A/A AB edeg|A/A/A Ac dGBG|A/A/A AB edef|gfef gdBG:|]

